X: 100296
T: CALDER'S WELCOME -- Strathspey -- (New)
C: By J. McQueen, Forres
R: strathspey
B: K\"ohler's Violin Repository, v.3, 1885 p.215 #2
F: http://www.archive.org/details/klersviolinrepos03rugg
Z: 2012 John Chambers <jc:trillian.mit.edu>
M: C|
L: 1/8
K: Am
(uA/B/) |\
(.c>.A) {c}(B>G) A2 (Bc) | e<d d>c B<uG uG2 |\
(.c>.A) {c}(B>G) A2 (Bd) | e<a (e>d) (e<A)A :|
uA |\
e<a(a>g) (a>g)e>f | (.g>.f)(d>g) B<uG uG2 |\
e<a(a>g) (a>e)e>d | B<b e>d e<uA uA2 |
e<a(a>g) (a>e)e>f | (.g>.e) (d>g) B<(G"^>"G>B) |\
(3cBA (3dcB (3edc (3BAG | (3cBA (3EAB "_Segue Reel."c<A A "^D.C."|]

%%sep 2 1 500

